X: 41
M:C|
L:1/8
K:F
vF2 (Ac) f2(de)|{g}fefd (eg)g2|F2 (Ac) fagf|ebge fdcA|
|:f2 (cf) (Af) (cf)|fagf egga|f2 (cf) AFcF|BdcB Acde|
f2 (cf) (Af) (cf)|fagf egga|bagf gfed|cbeg f2 z2:|


